svg/anchor.svg

<svg xmlns="http://www.w3.org/2000/svg" viewBox="0 0 24 24"><path d="M12 2a3 3 0 0 0-3 3 3 3 0 0 0 2 2.83V9H8v2h3v8.92c-.74-.13-1.5-.34-2.21-.65-.74-.32-1.39-.71-1.97-1.18s-1.04-.98-1.38-1.54L7 15l-4-3v3c0 .97.27 1.88.82 2.72A8.2 8.2 0 0 0 6 19.95c.87.64 1.84 1.14 2.88 1.5 1.05.36 2.09.55 3.12.55s2.07-.2 3.12-.56c1.04-.36 2.01-.86 2.88-1.49.92-.64 1.63-1.38 2.18-2.23.55-.84.82-1.75.82-2.72v-3l-4 3 1.56 1.55c-.34.56-.8 1.07-1.38 1.54s-1.23.86-1.97 1.18c-.71.31-1.47.52-2.21.65V11h3V9h-3V7.82A3 3 0 0 0 15 5a3 3 0 0 0-3-3m0 2a1 1 0 0 1 1 1 1 1 0 0 1-1 1 1 1 0 0 1-1-1 1 1 0 0 1 1-1"/></svg>

<?xml version="1.0" encoding="UTF-8"?><!DOCTYPE svg PUBLIC "-//W3C//DTD SVG 1.1//EN" "http://www.w3.org/Graphics/SVG/1.1/DTD/svg11.dtd"><svg xmlns="http://www.w3.org/2000/svg" xmlns:xlink="http://www.w3.org/1999/xlink" version="1.1" id="mdi-anchor" width="24" height="24" viewBox="0 0 24 24"><path d="M12 2A3 3 0 0 0 9 5A3 3 0 0 0 11 7.83V9H8V11H11V19.92C10.26 19.79 9.5 19.58 8.79 19.27C8.05 18.95 7.4 18.56 6.82 18.09C6.24 17.62 5.78 17.11 5.44 16.55L7 15L3 12V15C3 15.97 3.27 16.88 3.82 17.72C4.37 18.56 5.09 19.31 6 19.95C6.87 20.59 7.84 21.09 8.88 21.45C9.93 21.81 10.97 22 12 22C13.03 22 14.07 21.8 15.12 21.44C16.16 21.08 17.13 20.58 18 19.95C18.92 19.31 19.63 18.57 20.18 17.72C20.73 16.88 21 15.97 21 15V12L17 15L18.56 16.55C18.22 17.11 17.76 17.62 17.18 18.09C16.6 18.56 15.95 18.95 15.21 19.27C14.5 19.58 13.74 19.79 13 19.92V11H16V9H13V7.82A3 3 0 0 0 15 5A3 3 0 0 0 12 2M12 4A1 1 0 0 1 13 5A1 1 0 0 1 12 6A1 1 0 0 1 11 5A1 1 0 0 1 12 4Z" /></svg>
